X: 4244
T: JEANIE'S BLUE E'EN
%R: air, jig
B: James Kerr "Merry Melodies" v.4 p.27 #244
Z: 2016 John Chambers <jc:trillian.mit.edu>
M: 6/8
L: 1/8
K: D
|:\
dcd AFA | dcd e2g | fed agf | efd c2A |\
dcd AFA | dcd e2g | fed Adc | d3- d2A :|
|:\
f2f fef | g2g g3  | e2e ede | f2f f3  |\
d2d dcd | e2e efg | fed Adc | d3- d2A :|

%%sep 1 1 500
%%sep 1 1 500

